X:1
L:1/8
M:4/4
K:G
 A |: BG G2 DG G2 | ABcA dBcA | BGAF DG G2 |1 AdcA G3 :|2 AdcA G2 Bc || dg g2 bg g2 | dg g2 fdcA | 
 dg g2 bg g2 | dcde fefg | bgaf gfef | d eg fdcA | BGAF DG G2 | AdcA G3 ||
